X: 4292
M: C|
L: 1/8
K: Em
[1 g>fe>d e>dB>d | c>BA>G A2 :|\
[2 g>fe>d B>gf>g | e2E2E2 |]
g>a |:\
b>ag>f e>fg>e | B>eg>e b>eg>e |\
[1 d^cd>e d>ef>g | a>^ga>f b>a=g>a |\
[2 g>fe>d B>gf>g | e2E2E2 |]


